Papirus/24x24/apps/heroic.svg

<svg width="24" height="24" version="1.1" xmlns="http://www.w3.org/2000/svg">
 <path d="m13.454547 2.8571429c-0.363435-0.1450893-1.09111-0.3571429-1.454545-0.3571429s-1.09111 0.2120536-1.454545 0.3571429l-5.8181812 2.1428571c-0.4173523 0.1646964-0.7272784 0.3843436-0.7272758 0.714286 3.1e-6 0.3571425 0.083628 0.533152 0.1817181 0.8928565l3.4546479 11.964286s0.147039 0.414629 0.3636365 0.714286c0.1984245 0.274514 0.7272725 0.714286 0.7272725 0.714286l2.545454 2.142857s0.456384 0.357143 0.727273 0.357143c0.270888 0 0.727273-0.357143 0.727273-0.357143l2.545453-2.142857s0.520835-0.445538 0.727273-0.714286c0.215178-0.280125 0.363636-0.714286 0.363636-0.714286l3.454545-11.964286c0.115298-0.353638 0.181818-0.535714 0.181818-0.8928565 0-0.3157565-0.232742-0.5404071-0.727272-0.714286z" style="opacity:.2"/>
 <path d="m13.454547 2.3571429c-0.363435-0.1450893-1.09111-0.3571429-1.454545-0.3571429s-1.09111 0.2120536-1.454545 0.3571429l-5.8181812 2.1428571c-0.4173523 0.1646964-0.7272784 0.3843436-0.7272758 0.714286 3.1e-6 0.3571425 0.083628 0.533152 0.1817181 0.8928565l3.4546479 11.964286s0.147039 0.414629 0.3636365 0.714286c0.1984245 0.274514 0.7272725 0.714286 0.7272725 0.714286l2.545454 2.142857s0.456384 0.357143 0.727273 0.357143c0.270888 0 0.727273-0.357143 0.727273-0.357143l2.545453-2.142857s0.520835-0.445538 0.727273-0.714286c0.215178-0.280125 0.363636-0.714286 0.363636-0.714286l3.454545-11.964286c0.115298-0.353638 0.181818-0.535714 0.181818-0.8928565 0-0.3157565-0.232742-0.5404071-0.727272-0.714286z" style="fill:#50beee"/>
 <path d="m12 5-1.5 2.5 1 9 0.5 0.5 0.5-0.5 1-9zm-2.5 11.75-0.5 0.75 0.5 0.75 1.5-0.25 0.5-0.5-0.5-0.5zm5 0-1.5 0.25-0.5 0.5 0.5 0.5 1.5 0.25 0.5-0.75zm-2.5 1.25-0.5 0.5-0.25 1.5 0.75 0.5 0.75-0.5-0.25-1.5z" style="opacity:.2"/>
 <path d="m12 4.5-1.5 2.5 1 9 0.5 0.5 0.5-0.5 1-9zm-2.5 11.75-0.5 0.75 0.5 0.75 1.5-0.25 0.5-0.5-0.5-0.5zm5 0-1.5 0.25-0.5 0.5 0.5 0.5 1.5 0.25 0.5-0.75zm-2.5 1.25-0.5 0.5-0.25 1.5 0.75 0.5 0.75-0.5-0.25-1.5z" style="fill:#4f4f4f"/>
 <path transform="matrix(.31644005 0 0 .31644005 2.1446229 1.025958)" d="m31.144531 10.978516-4.740234 7.90039 0.148132 1.333191 4.592102-7.653503 4.592103 7.653503 0.148132-1.333191zm-7.90039 37.131835-1.580078 2.370118 0.526692 0.790039 1.053386-1.580078 4.740234 0.790039 0.790039 0.790039 0.790039-0.790039-1.580078-1.580079zm15.800781 0-4.740234 0.790039-1.580078 1.580079 0.790039 0.790039 0.790039-0.790039 4.740234-0.790039 1.053386 1.580078 0.526692-0.790039zm-7.900391 3.950196-1.580078 1.580078-0.790039 4.740234 0.237012 0.158008 0.553027-3.318164 1.580078-1.580078 1.580079 1.580078 0.553027 3.318164 0.237012-0.158008-0.790039-4.740234z" style="fill:#ffffff;opacity:.2"/>
 <path d="m19.818182 5.714c0-0.3530165-0.120493-0.5504205-0.545454-0.714l-5.818181-2.143c-0.363435-0.1450893-1.09111-0.357-1.454545-0.357s-1.09111 0.2119107-1.454545 0.357l-5.8181812 2.143c-0.4041988 0.1643555-0.5454541 0.41607-0.5454541 0.714l-1.036e-4 0.3931425c-0.0980903-0.3597045-0.181715-0.535714-0.1817181-0.8928565-2.6e-6 -0.3299424 0.3099235-0.5495896 0.7272758-0.714286l5.8181812-2.1428571c0.363435-0.1450893 1.09111-0.3571429 1.454545-0.3571429s1.09111 0.2120536 1.454545 0.3571429l5.818181 2.1428571c0.49453 0.1738789 0.727272 0.3985295 0.727272 0.7142855 0 0.357143-0.06652 0.539219-0.181818 0.892857z" style="fill:#ffffff;opacity:.2"/>
</svg>

<svg xmlns="http://www.w3.org/2000/svg" width="24" height="24" version="1.1">
 <path style="opacity:0.2" d="M 13.455,2.8571 C 13.091,2.7121 12.363,2.5 12,2.5 11.637,2.5 10.909,2.7121 10.545,2.8571 L 4.7273,5 C 4.3099,5.1647 4,5.3843 4,5.7143 4,6.0714 4.0836,6.2474 4.1817,6.6071 L 7.6364,18.571 C 7.6364,18.571 7.7834,18.986 8,19.286 8.1984,19.56 8.7273,20 8.7273,20 L 11.273,22.143 C 11.273,22.143 11.729,22.5 12,22.5 12.271,22.5 12.727,22.143 12.727,22.143 L 15.273,20 C 15.273,20 15.794,19.554 16,19.286 16.215,19.006 16.364,18.571 16.364,18.571 L 19.818,6.6071 C 19.933,6.2535 20,6.0714 20,5.7143 20,5.3985 19.767,5.1739 19.273,5 Z"/>
 <path style="fill:#50beee" d="M 13.455,2.3571 C 13.091,2.2121 12.363,2 12,2 11.637,2 10.909,2.2121 10.545,2.3571 L 4.7273,4.5 C 4.3099,4.6647 4,4.8843 4,5.2143 4,5.5714 4.0836,5.7474 4.1817,6.1071 L 7.6364,18.071 C 7.6364,18.071 7.7834,18.486 8,18.786 8.1984,19.06 8.7273,19.5 8.7273,19.5 L 11.273,21.643 C 11.273,21.643 11.729,22 12,22 12.271,22 12.727,21.643 12.727,21.643 L 15.273,19.5 C 15.273,19.5 15.794,19.054 16,18.786 16.215,18.506 16.364,18.071 16.364,18.071 L 19.818,6.1071 C 19.933,5.7535 20,5.5714 20,5.2143 20,4.8985 19.767,4.6739 19.273,4.5 Z"/>
 <path style="opacity:0.2" d="m12 5-1.5 2.5 1 9 0.5 0.5 0.5-0.5 1-9zm-2.5 11.75-0.5 0.75 0.5 0.75 1.5-0.25 0.5-0.5-0.5-0.5zm5 0-1.5 0.25-0.5 0.5 0.5 0.5 1.5 0.25 0.5-0.75zm-2.5 1.25-0.5 0.5-0.25 1.5 0.75 0.5 0.75-0.5-0.25-1.5z"/>
 <path style="fill:#4f4f4f" d="m12 4.5-1.5 2.5 1 9 0.5 0.5 0.5-0.5 1-9zm-2.5 11.75-0.5 0.75 0.5 0.75 1.5-0.25 0.5-0.5-0.5-0.5zm5 0-1.5 0.25-0.5 0.5 0.5 0.5 1.5 0.25 0.5-0.75zm-2.5 1.25-0.5 0.5-0.25 1.5 0.75 0.5 0.75-0.5-0.25-1.5z"/>
 <path style="fill:#ffffff;opacity:0.2" d="M 12 2 C 11.637 2 10.909 2.2124 10.545 2.3574 L 4.7266 4.5 C 4.3092 4.6647 4 4.8848 4 5.2148 C 4 5.3445 4.0125 5.4475 4.0312 5.5469 C 4.1175 5.3076 4.3845 5.135 4.7266 5 L 10.545 2.8574 C 10.909 2.7124 11.637 2.5 12 2.5 C 12.363 2.5 13.091 2.7124 13.455 2.8574 L 19.273 5 C 19.675 5.1414 19.901 5.3168 19.973 5.5469 C 19.989 5.4474 20 5.3436 20 5.2148 C 20 4.899 19.767 4.6739 19.273 4.5 L 13.455 2.3574 C 13.091 2.2124 12.363 2 12 2 z"/>
</svg>
